thermal.cube
# Generated by colorizer.net
LUT_3D_SIZE 4
0.007843 0.000000 0.541176
0.007843 0.152941 0.537255
0.007843 0.305882 0.537255
0.007843 0.462745 0.533333
0.007843 0.301961 0.537255
0.007843 0.454902 0.533333
0.192157 0.603922 0.447059
0.486275 0.745098 0.309804
0.180392 0.596078 0.450980
0.478431 0.741176 0.313725
0.772549 0.882353 0.176471
1.000000 0.921569 0.070588
0.764706 0.878431 0.180392
1.000000 0.933333 0.070588
1.000000 0.635294 0.066667
1.000000 0.341176 0.066667
0.007843 0.058824 0.541176
0.007843 0.211765 0.537255
0.007843 0.364706 0.537255
0.019608 0.517647 0.529412
0.007843 0.360784 0.537255
0.007843 0.513725 0.533333
0.305882 0.654902 0.396078
0.600000 0.800000 0.254902
0.294118 0.650980 0.400000
0.592157 0.796078 0.262745
0.886275 0.937255 0.121569
1.000000 0.807843 0.070588
0.874510 0.933333 0.129412
1.000000 0.819608 0.070588
1.000000 0.521569 0.066667
1.000000 0.227451 0.062745
0.007843 0.117647 0.541176
0.007843 0.270588 0.537255
0.007843 0.423529 0.533333
0.133333 0.572549 0.474510
0.007843 0.419608 0.533333
0.121569 0.568627 0.482353
0.415686 0.709804 0.341176
0.713725 0.854902 0.203922
0.407843 0.705882 0.349020
0.701961 0.850980 0.207843
1.000000 0.992157 0.070588
1.000000 0.694118 0.066667
0.988235 0.988235 0.074510
1.000000 0.705882 0.066667
1.000000 0.407843 0.066667
1.000000 0.113725 0.062745
0.007843 0.176471 0.537255
0.007843 0.329412 0.537255
0.007843 0.482353 0.533333
0.243137 0.627451 0.423529
0.007843 0.478431 0.533333
0.235294 0.623529 0.427451
0.529412 0.764706 0.290196
0.827451 0.909804 0.152941
0.521569 0.760784 0.294118
0.815686 0.901961 0.156863
1.000000 0.878431 0.070588
1.000000 0.584314 0.066667
1.000000 0.890196 0.070588
1.000000 0.592157 0.066667
1.000000 0.298039 0.066667
1.000000 0.000000 0.062745
