thermal.cube
# Generated by colorizer.net
LUT_3D_SIZE 64
0.007843 0.000000 0.541176
0.007843 0.007843 0.541176
0.007843 0.015686 0.541176
0.007843 0.023529 0.541176
0.007843 0.027451 0.541176
0.007843 0.035294 0.541176
0.007843 0.043137 0.541176
0.007843 0.050980 0.541176
0.007843 0.058824 0.541176
0.007843 0.066667 0.541176
0.007843 0.070588 0.541176
0.007843 0.078431 0.541176
0.007843 0.086275 0.541176
0.007843 0.094118 0.541176
0.007843 0.101961 0.541176
0.007843 0.109804 0.541176
0.007843 0.117647 0.541176
0.007843 0.125490 0.541176
0.007843 0.133333 0.537255
0.007843 0.137255 0.537255
0.007843 0.145098 0.537255
0.007843 0.152941 0.537255
0.007843 0.160784 0.537255
0.007843 0.168627 0.537255
0.007843 0.176471 0.537255
0.007843 0.184314 0.537255
0.007843 0.188235 0.537255
0.007843 0.196078 0.537255
0.007843 0.203922 0.537255
0.007843 0.211765 0.537255
0.007843 0.219608 0.537255
0.007843 0.227451 0.537255
0.007843 0.235294 0.537255
0.007843 0.243137 0.537255
0.007843 0.250980 0.537255
0.007843 0.254902 0.537255
0.007843 0.262745 0.537255
0.007843 0.270588 0.537255
0.007843 0.278431 0.537255
0.007843 0.286275 0.537255
0.007843 0.294118 0.537255
0.007843 0.298039 0.537255
0.007843 0.305882 0.537255
0.007843 0.313725 0.537255
0.007843 0.321569 0.537255
0.007843 0.329412 0.537255
0.007843 0.337255 0.537255
0.007843 0.345098 0.537255
0.007843 0.352941 0.537255
0.007843 0.360784 0.537255
0.007843 0.368627 0.537255
0.007843 0.372549 0.537255
0.007843 0.380392 0.537255
0.007843 0.388235 0.533333
0.007843 0.396078 0.533333
0.007843 0.403922 0.533333
0.007843 0.411765 0.533333
0.007843 0.415686 0.533333
0.007843 0.423529 0.533333
0.007843 0.431373 0.533333
0.007843 0.439216 0.533333
0.007843 0.447059 0.533333
0.007843 0.454902 0.533333
0.007843 0.462745 0.533333
0.007843 0.015686 0.541176
0.007843 0.019608 0.541176
0.007843 0.027451 0.541176
0.007843 0.035294 0.541176
0.007843 0.043137 0.541176
0.007843 0.050980 0.541176
0.007843 0.058824 0.541176
0.007843 0.066667 0.541176
0.007843 0.070588 0.541176
0.007843 0.078431 0.541176
0.007843 0.086275 0.541176
0.007843 0.094118 0.541176
0.007843 0.101961 0.541176
0.007843 0.109804 0.541176
0.007843 0.113725 0.541176
0.007843 0.121569 0.541176
0.007843 0.133333 0.537255
0.007843 0.137255 0.537255
0.007843 0.145098 0.537255
0.007843 0.152941 0.537255
0.007843 0.160784 0.537255
0.007843 0.168627 0.537255
0.007843 0.176471 0.537255
0.007843 0.180392 0.537255
0.007843 0.188235 0.537255
0.007843 0.196078 0.537255
0.007843 0.203922 0.537255
0.007843 0.211765 0.537255
0.007843 0.219608 0.537255
0.007843 0.227451 0.537255
0.007843 0.231373 0.537255
0.007843 0.239216 0.537255
0.007843 0.250980 0.537255
0.007843 0.254902 0.537255
0.007843 0.262745 0.537255
0.007843 0.270588 0.537255
0.007843 0.278431 0.537255
0.007843 0.286275 0.537255
0.007843 0.294118 0.537255
0.007843 0.298039 0.537255
0.007843 0.305882 0.537255
0.007843 0.313725 0.537255
0.007843 0.321569 0.537255
0.007843 0.329412 0.537255
0.007843 0.337255 0.537255
0.007843 0.341176 0.537255
0.007843 0.349020 0.537255
0.007843 0.356863 0.537255
0.007843 0.364706 0.537255
0.007843 0.372549 0.537255
0.007843 0.380392 0.537255
0.007843 0.388235 0.533333
0.007843 0.396078 0.533333
0.007843 0.403922 0.533333
0.007843 0.411765 0.533333
0.007843 0.415686 0.533333
0.007843 0.423529 0.533333
0.007843 0.431373 0.533333
0.007843 0.439216 0.533333
0.007843 0.447059 0.533333
0.007843 0.454902 0.533333
0.007843 0.458824 0.533333
0.007843 0.466667 0.533333
0.007843 0.474510 0.533333
0.007843 0.027451 0.541176
0.007843 0.035294 0.541176
0.007843 0.043137 0.541176
0.007843 0.050980 0.541176
0.007843 0.058824 0.541176
0.007843 0.062745 0.541176
0.007843 0.070588 0.541176
0.007843 0.078431 0.541176
0.007843 0.086275 0.541176
0.007843 0.094118 0.541176
0.007843 0.101961 0.541176
0.007843 0.109804 0.541176
0.007843 0.113725 0.541176
0.007843 0.121569 0.541176
0.007843 0.129412 0.537255
0.007843 0.137255 0.537255
0.007843 0.145098 0.537255
0.007843 0.152941 0.537255
0.007843 0.160784 0.537255
0.007843 0.168627 0.537255
0.007843 0.176471 0.537255
0.007843 0.180392 0.537255
0.007843 0.188235 0.537255
0.007843 0.196078 0.537255
0.007843 0.203922 0.537255
0.007843 0.211765 0.537255
0.007843 0.219608 0.537255
0.007843 0.223529 0.537255
0.007843 0.231373 0.537255
0.007843 0.239216 0.537255
0.007843 0.247059 0.537255
0.007843 0.254902 0.537255
0.007843 0.262745 0.537255
0.007843 0.270588 0.537255
0.007843 0.278431 0.537255
0.007843 0.286275 0.537255
0.007843 0.294118 0.537255
0.007843 0.298039 0.537255
0.007843 0.305882 0.537255
0.007843 0.313725 0.537255
0.007843 0.321569 0.537255
0.007843 0.329412 0.537255
0.007843 0.337255 0.537255
0.007843 0.341176 0.537255
0.007843 0.349020 0.537255
0.007843 0.356863 0.537255
0.007843 0.364706 0.537255
0.007843 0.372549 0.537255
0.007843 0.380392 0.537255
0.007843 0.388235 0.533333
0.007843 0.396078 0.533333
0.007843 0.403922 0.533333
0.007843 0.407843 0.533333
0.007843 0.415686 0.533333
0.007843 0.423529 0.533333
0.007843 0.431373 0.533333
0.007843 0.439216 0.533333
0.007843 0.447059 0.533333
0.007843 0.454902 0.533333
0.007843 0.458824 0.533333
0.007843 0.466667 0.533333
0.007843 0.474510 0.533333
0.007843 0.482353 0.533333
0.007843 0.490196 0.533333
0.007843 0.043137 0.541176
0.007843 0.050980 0.541176
0.007843 0.058824 0.541176
0.007843 0.062745 0.541176
0.007843 0.070588 0.541176
0.007843 0.078431 0.541176
0.007843 0.086275 0.541176
0.007843 0.094118 0.541176
0.007843 0.101961 0.541176
0.007843 0.105882 0.541176
0.007843 0.113725 0.541176
0.007843 0.121569 0.541176
0.007843 0.129412 0.537255
0.007843 0.137255 0.537255
0.007843 0.145098 0.537255
0.007843 0.152941 0.537255
0.007843 0.160784 0.537255
0.007843 0.168627 0.537255
0.007843 0.172549 0.537255
0.007843 0.180392 0.537255
0.007843 0.188235 0.537255
0.007843 0.196078 0.537255
0.007843 0.203922 0.537255
0.007843 0.211765 0.537255
0.007843 0.219608 0.537255
0.007843 0.223529 0.537255
0.007843 0.231373 0.537255
0.007843 0.239216 0.537255
0.007843 0.247059 0.537255
0.007843 0.254902 0.537255
0.007843 0.262745 0.537255
0.007843 0.266667 0.537255
0.007843 0.278431 0.537255
0.007843 0.286275 0.537255
0.007843 0.290196 0.537255
0.007843 0.298039 0.537255
0.007843 0.305882 0.537255
0.007843 0.313725 0.537255
0.007843 0.321569 0.537255
0.007843 0.329412 0.537255
0.007843 0.337255 0.537255
0.007843 0.341176 0.537255
0.007843 0.349020 0.537255
0.007843 0.356863 0.537255
0.007843 0.364706 0.537255
0.007843 0.372549 0.537255
0.007843 0.380392 0.537255
0.007843 0.384314 0.533333
0.007843 0.396078 0.533333
0.007843 0.403922 0.533333
0.007843 0.407843 0.533333
0.007843 0.415686 0.533333
0.007843 0.423529 0.533333
0.007843 0.431373 0.533333
0.007843 0.439216 0.533333
0.007843 0.447059 0.533333
0.007843 0.450980 0.533333
0.007843 0.458824 0.533333
0.007843 0.466667 0.533333
0.007843 0.474510 0.533333
0.007843 0.482353 0.533333
0.007843 0.490196 0.533333
0.007843 0.498039 0.533333
0.007843 0.501961 0.533333
0.007843 0.054902 0.541176
0.007843 0.062745 0.541176
0.007843 0.070588 0.541176
0.007843 0.078431 0.541176
0.007843 0.086275 0.541176
0.007843 0.094118 0.541176
0.007843 0.101961 0.541176
0.007843 0.105882 0.541176
0.007843 0.113725 0.541176
0.007843 0.121569 0.541176
0.007843 0.129412 0.537255
0.007843 0.137255 0.537255
0.007843 0.145098 0.537255
0.007843 0.149020 0.537255
0.007843 0.156863 0.537255
0.007843 0.164706 0.537255
0.007843 0.172549 0.537255
0.007843 0.180392 0.537255
0.007843 0.188235 0.537255
0.007843 0.196078 0.537255
0.007843 0.203922 0.537255
0.007843 0.211765 0.537255
0.007843 0.215686 0.537255
0.007843 0.223529 0.537255
0.007843 0.231373 0.537255
0.007843 0.239216 0.537255
0.007843 0.247059 0.537255
0.007843 0.254902 0.537255
0.007843 0.262745 0.537255
0.007843 0.266667 0.537255
0.007843 0.274510 0.537255
0.007843 0.282353 0.537255
0.007843 0.290196 0.537255
0.007843 0.298039 0.537255
0.007843 0.305882 0.537255
0.007843 0.313725 0.537255
0.007843 0.321569 0.537255
0.007843 0.329412 0.537255
0.007843 0.333333 0.537255
0.007843 0.341176 0.537255
0.007843 0.349020 0.537255
0.007843 0.356863 0.537255
0.007843 0.364706 0.537255
0.007843 0.372549 0.537255
0.007843 0.376471 0.537255
0.007843 0.384314 0.533333
0.007843 0.392157 0.533333
0.007843 0.400000 0.533333
0.007843 0.407843 0.533333
0.007843 0.415686 0.533333
0.007843 0.423529 0.533333
0.007843 0.431373 0.533333
0.007843 0.439216 0.533333
0.007843 0.447059 0.533333
0.007843 0.450980 0.533333
0.007843 0.458824 0.533333
0.007843 0.466667 0.533333
0.007843 0.474510 0.533333
0.007843 0.482353 0.533333
0.007843 0.490196 0.533333
0.007843 0.494118 0.533333
0.007843 0.501961 0.533333
0.007843 0.509804 0.533333
0.015686 0.517647 0.529412
0.007843 0.070588 0.541176
0.007843 0.078431 0.541176
0.007843 0.086275 0.541176
0.007843 0.094118 0.541176
0.007843 0.098039 0.541176
0.007843 0.105882 0.541176
0.007843 0.113725 0.541176
0.007843 0.121569 0.541176
0.007843 0.129412 0.537255
0.007843 0.137255 0.537255
0.007843 0.145098 0.537255
0.007843 0.149020 0.537255
0.007843 0.156863 0.537255
0.007843 0.164706 0.537255
0.007843 0.172549 0.537255
0.007843 0.180392 0.537255
0.007843 0.188235 0.537255
0.007843 0.196078 0.537255
0.007843 0.203922 0.537255
0.007843 0.211765 0.537255
0.007843 0.215686 0.537255
0.007843 0.223529 0.537255
0.007843 0.231373 0.537255
0.007843 0.239216 0.537255
0.007843 0.247059 0.537255
0.007843 0.254902 0.537255
0.007843 0.258824 0.537255
0.007843 0.266667 0.537255
0.007843 0.274510 0.537255
0.007843 0.282353 0.537255
0.007843 0.290196 0.537255
0.007843 0.298039 0.537255
0.007843 0.305882 0.537255
0.007843 0.313725 0.537255
0.007843 0.321569 0.537255
0.007843 0.329412 0.537255
0.007843 0.333333 0.537255
0.007843 0.341176 0.537255
0.007843 0.349020 0.537255
0.007843 0.356863 0.537255
0.007843 0.364706 0.537255
0.007843 0.372549 0.537255
0.007843 0.376471 0.537255
0.007843 0.384314 0.533333
0.007843 0.392157 0.533333
0.007843 0.400000 0.533333
0.007843 0.407843 0.533333
0.007843 0.415686 0.533333
0.007843 0.423529 0.533333
0.007843 0.431373 0.533333
0.007843 0.439216 0.533333
0.007843 0.443137 0.533333
0.007843 0.450980 0.533333
0.007843 0.458824 0.533333
0.007843 0.466667 0.533333
0.007843 0.474510 0.533333
0.007843 0.482353 0.533333
0.007843 0.490196 0.533333
0.007843 0.494118 0.533333
0.007843 0.501961 0.533333
0.007843 0.509804 0.533333
0.015686 0.517647 0.529412
0.027451 0.525490 0.525490
0.043137 0.529412 0.517647
0.007843 0.086275 0.541176
0.007843 0.094118 0.541176
0.007843 0.098039 0.541176
0.007843 0.105882 0.541176
0.007843 0.113725 0.541176
0.007843 0.121569 0.541176
0.007843 0.129412 0.537255
0.007843 0.137255 0.537255
0.007843 0.141176 0.537255
0.007843 0.149020 0.537255
0.007843 0.156863 0.537255
0.007843 0.164706 0.537255
0.007843 0.172549 0.537255
0.007843 0.180392 0.537255
0.007843 0.188235 0.537255
0.007843 0.192157 0.537255
0.007843 0.203922 0.537255
0.007843 0.211765 0.537255
0.007843 0.215686 0.537255
0.007843 0.223529 0.537255
0.007843 0.231373 0.537255
0.007843 0.239216 0.537255
0.007843 0.247059 0.537255
0.007843 0.254902 0.537255
0.007843 0.258824 0.537255
0.007843 0.266667 0.537255
0.007843 0.274510 0.537255
0.007843 0.282353 0.537255
0.007843 0.290196 0.537255
0.007843 0.298039 0.537255
0.007843 0.301961 0.537255
0.007843 0.309804 0.537255
0.007843 0.321569 0.537255
0.007843 0.325490 0.537255
0.007843 0.333333 0.537255
0.007843 0.341176 0.537255
0.007843 0.349020 0.537255
0.007843 0.356863 0.537255
0.007843 0.364706 0.537255
0.007843 0.372549 0.537255
0.007843 0.376471 0.537255
0.007843 0.384314 0.537255
0.007843 0.392157 0.533333
0.007843 0.400000 0.533333
0.007843 0.407843 0.533333
0.007843 0.415686 0.533333
0.007843 0.419608 0.533333
0.007843 0.427451 0.533333
0.007843 0.439216 0.533333
0.007843 0.443137 0.533333
0.007843 0.450980 0.533333
0.007843 0.458824 0.533333
0.007843 0.466667 0.533333
0.007843 0.474510 0.533333
0.007843 0.482353 0.533333
0.007843 0.486275 0.533333
0.007843 0.494118 0.533333
0.007843 0.501961 0.533333
0.007843 0.509804 0.533333
0.015686 0.517647 0.529412
0.027451 0.525490 0.525490
0.043137 0.529412 0.517647
0.054902 0.537255 0.509804
0.070588 0.545098 0.505882
0.007843 0.098039 0.541176
0.007843 0.105882 0.541176
0.007843 0.113725 0.541176
0.007843 0.121569 0.541176
0.007843 0.129412 0.541176
0.007843 0.137255 0.537255
0.007843 0.141176 0.537255
0.007843 0.149020 0.537255
0.007843 0.156863 0.537255
0.007843 0.164706 0.537255
0.007843 0.172549 0.537255
0.007843 0.180392 0.537255
0.007843 0.184314 0.537255
0.007843 0.192157 0.537255
0.007843 0.200000 0.537255
0.007843 0.207843 0.537255
0.007843 0.215686 0.537255
0.007843 0.223529 0.537255
0.007843 0.231373 0.537255
0.007843 0.239216 0.537255
0.007843 0.247059 0.537255
0.007843 0.250980 0.537255
0.007843 0.258824 0.537255
0.007843 0.266667 0.537255
0.007843 0.274510 0.537255
0.007843 0.282353 0.537255
0.007843 0.290196 0.537255
0.007843 0.298039 0.537255
0.007843 0.301961 0.537255
0.007843 0.309804 0.537255
0.007843 0.317647 0.537255
0.007843 0.325490 0.537255
0.007843 0.333333 0.537255
0.007843 0.341176 0.537255
0.007843 0.349020 0.537255
0.007843 0.356863 0.537255
0.007843 0.364706 0.537255
0.007843 0.368627 0.537255
0.007843 0.376471 0.537255
0.007843 0.384314 0.537255
0.007843 0.392157 0.533333
0.007843 0.400000 0.533333
0.007843 0.407843 0.533333
0.007843 0.415686 0.533333
0.007843 0.419608 0.533333
0.007843 0.427451 0.533333
0.007843 0.435294 0.533333
0.007843 0.443137 0.533333
0.007843 0.450980 0.533333
0.007843 0.458824 0.533333
0.007843 0.466667 0.533333
0.007843 0.474510 0.533333
0.007843 0.482353 0.533333
0.007843 0.486275 0.533333
0.007843 0.494118 0.533333
0.007843 0.501961 0.533333
0.007843 0.509804 0.533333
0.015686 0.517647 0.529412
0.027451 0.521569 0.525490
0.043137 0.529412 0.517647
0.054902 0.537255 0.509804
0.070588 0.545098 0.505882
0.082353 0.549020 0.498039
0.098039 0.556863 0.490196
0.007843 0.113725 0.541176
0.007843 0.121569 0.541176
0.007843 0.129412 0.541176
0.007843 0.133333 0.537255
0.007843 0.141176 0.537255
0.007843 0.149020 0.537255
0.007843 0.156863 0.537255
0.007843 0.164706 0.537255
0.007843 0.172549 0.537255
0.007843 0.180392 0.537255
0.007843 0.184314 0.537255
0.007843 0.192157 0.537255
0.007843 0.200000 0.537255
0.007843 0.207843 0.537255
0.007843 0.215686 0.537255
0.007843 0.223529 0.537255
0.007843 0.231373 0.537255
0.007843 0.239216 0.537255
0.007843 0.247059 0.537255
0.007843 0.250980 0.537255
0.007843 0.258824 0.537255
0.007843 0.266667 0.537255
0.007843 0.274510 0.537255
0.007843 0.282353 0.537255
0.007843 0.290196 0.537255
0.007843 0.294118 0.537255
0.007843 0.301961 0.537255
0.007843 0.309804 0.537255
0.007843 0.317647 0.537255
0.007843 0.325490 0.537255
0.007843 0.333333 0.537255
0.007843 0.341176 0.537255
0.007843 0.349020 0.537255
0.007843 0.356863 0.537255
0.007843 0.364706 0.537255
0.007843 0.368627 0.537255
0.007843 0.376471 0.537255
0.007843 0.384314 0.537255
0.007843 0.392157 0.533333
0.007843 0.400000 0.533333
0.007843 0.407843 0.533333
0.007843 0.411765 0.533333
0.007843 0.419608 0.533333
0.007843 0.427451 0.533333
0.007843 0.435294 0.533333
0.007843 0.443137 0.533333
0.007843 0.450980 0.533333
0.007843 0.458824 0.533333
0.007843 0.466667 0.533333
0.007843 0.474510 0.533333
0.007843 0.478431 0.533333
0.007843 0.486275 0.533333
0.007843 0.494118 0.533333
0.007843 0.501961 0.533333
0.007843 0.509804 0.533333
0.011765 0.517647 0.529412
0.027451 0.521569 0.525490
0.039216 0.529412 0.517647
0.054902 0.537255 0.509804
0.070588 0.545098 0.505882
0.082353 0.549020 0.498039
0.098039 0.556863 0.490196
0.109804 0.564706 0.486275
0.125490 0.568627 0.478431
0.007843 0.129412 0.541176
0.007843 0.133333 0.537255
0.007843 0.141176 0.537255
0.007843 0.149020 0.537255
0.007843 0.156863 0.537255
0.007843 0.164706 0.537255
0.007843 0.172549 0.537255
0.007843 0.176471 0.537255
0.007843 0.184314 0.537255
0.007843 0.192157 0.537255
0.007843 0.200000 0.537255
0.007843 0.207843 0.537255
0.007843 0.215686 0.537255
0.007843 0.223529 0.537255
0.007843 0.227451 0.537255
0.007843 0.235294 0.537255
0.007843 0.247059 0.537255
0.007843 0.250980 0.537255
0.007843 0.258824 0.537255
0.007843 0.266667 0.537255
0.007843 0.274510 0.537255
0.007843 0.282353 0.537255
0.007843 0.290196 0.537255
0.007843 0.294118 0.537255
0.007843 0.301961 0.537255
0.007843 0.309804 0.537255
0.007843 0.317647 0.537255
0.007843 0.325490 0.537255
0.007843 0.333333 0.537255
0.007843 0.337255 0.537255
0.007843 0.345098 0.537255
0.007843 0.352941 0.537255
0.007843 0.360784 0.537255
0.007843 0.368627 0.537255
0.007843 0.376471 0.537255
0.007843 0.384314 0.537255
0.007843 0.392157 0.533333
0.007843 0.400000 0.533333
0.007843 0.407843 0.533333
0.007843 0.411765 0.533333
0.007843 0.419608 0.533333
0.007843 0.427451 0.533333
0.007843 0.435294 0.533333
0.007843 0.443137 0.533333
0.007843 0.450980 0.533333
0.007843 0.454902 0.533333
0.007843 0.462745 0.533333
0.007843 0.470588 0.533333
0.007843 0.478431 0.533333
0.007843 0.486275 0.533333
0.007843 0.494118 0.533333
0.007843 0.501961 0.533333
0.007843 0.509804 0.533333
0.011765 0.517647 0.529412
0.027451 0.521569 0.525490
0.039216 0.529412 0.517647
0.054902 0.537255 0.509804
0.066667 0.541176 0.505882
0.082353 0.549020 0.498039
0.098039 0.556863 0.490196
0.109804 0.564706 0.486275
0.125490 0.568627 0.478431
0.137255 0.576471 0.470588
0.152941 0.584314 0.466667
0.007843 0.141176 0.537255
0.007843 0.149020 0.537255
0.007843 0.156863 0.537255
0.007843 0.164706 0.537255
0.007843 0.172549 0.537255
0.007843 0.176471 0.537255
0.007843 0.184314 0.537255
0.007843 0.192157 0.537255
0.007843 0.200000 0.537255
0.007843 0.207843 0.537255
0.007843 0.215686 0.537255
0.007843 0.219608 0.537255
0.007843 0.227451 0.537255
0.007843 0.235294 0.537255
0.007843 0.243137 0.537255
0.007843 0.250980 0.537255
0.007843 0.258824 0.537255
0.007843 0.266667 0.537255
0.007843 0.274510 0.537255
0.007843 0.282353 0.537255
0.007843 0.290196 0.537255
0.007843 0.294118 0.537255
0.007843 0.301961 0.537255
0.007843 0.309804 0.537255
0.007843 0.317647 0.537255
0.007843 0.325490 0.537255
0.007843 0.333333 0.537255
0.007843 0.337255 0.537255
0.007843 0.345098 0.537255
0.007843 0.352941 0.537255
0.007843 0.360784 0.537255
0.007843 0.368627 0.537255
0.007843 0.376471 0.537255
0.007843 0.384314 0.537255
0.007843 0.392157 0.533333
0.007843 0.400000 0.533333
0.007843 0.403922 0.533333
0.007843 0.411765 0.533333
0.007843 0.419608 0.533333
0.007843 0.427451 0.533333
0.007843 0.435294 0.533333
0.007843 0.443137 0.533333
0.007843 0.450980 0.533333
0.007843 0.454902 0.533333
0.007843 0.462745 0.533333
0.007843 0.470588 0.533333
0.007843 0.478431 0.533333
0.007843 0.486275 0.533333
0.007843 0.494118 0.533333
0.007843 0.501961 0.533333
0.007843 0.509804 0.533333
0.011765 0.517647 0.529412
0.027451 0.521569 0.525490
0.039216 0.529412 0.517647
0.054902 0.537255 0.513725
0.066667 0.541176 0.505882
0.082353 0.549020 0.498039
0.094118 0.556863 0.494118
0.109804 0.564706 0.486275
0.125490 0.568627 0.478431
0.137255 0.576471 0.474510
0.152941 0.584314 0.466667
0.164706 0.588235 0.458824
0.180392 0.596078 0.454902
0.007843 0.156863 0.537255
0.007843 0.164706 0.537255
0.007843 0.168627 0.537255
0.007843 0.176471 0.537255
0.007843 0.184314 0.537255
0.007843 0.192157 0.537255
0.007843 0.200000 0.537255
0.007843 0.207843 0.537255
0.007843 0.215686 0.537255
0.007843 0.219608 0.537255
0.007843 0.227451 0.537255
0.007843 0.235294 0.537255
0.007843 0.243137 0.537255
0.007843 0.250980 0.537255
0.007843 0.258824 0.537255
0.007843 0.262745 0.537255
0.007843 0.274510 0.537255
0.007843 0.282353 0.537255
0.007843 0.286275 0.537255
0.007843 0.294118 0.537255
0.007843 0.301961 0.537255
0.007843 0.309804 0.537255
0.007843 0.317647 0.537255
0.007843 0.325490 0.537255
0.007843 0.333333 0.537255
0.007843 0.337255 0.537255
0.007843 0.345098 0.537255
0.007843 0.352941 0.537255
0.007843 0.360784 0.537255
0.007843 0.368627 0.537255
0.007843 0.376471 0.537255
0.007843 0.380392 0.537255
0.007843 0.392157 0.533333
0.007843 0.400000 0.533333
0.007843 0.403922 0.533333
0.007843 0.411765 0.533333
0.007843 0.419608 0.533333
0.007843 0.427451 0.533333
0.007843 0.435294 0.533333
0.007843 0.443137 0.533333
0.007843 0.447059 0.533333
0.007843 0.454902 0.533333
0.007843 0.462745 0.533333
0.007843 0.470588 0.533333
0.007843 0.478431 0.533333
0.007843 0.486275 0.533333
0.007843 0.494118 0.533333
0.007843 0.498039 0.533333
0.007843 0.509804 0.533333
0.011765 0.513725 0.533333
0.027451 0.521569 0.525490
0.039216 0.529412 0.517647
0.054902 0.537255 0.513725
0.066667 0.541176 0.505882
0.082353 0.549020 0.498039
0.094118 0.556863 0.494118
0.109804 0.560784 0.486275
0.121569 0.568627 0.478431
0.137255 0.576471 0.474510
0.152941 0.584314 0.466667
0.164706 0.588235 0.458824
0.180392 0.596078 0.454902
0.192157 0.603922 0.447059
0.207843 0.611765 0.439216
0.007843 0.168627 0.537255
0.007843 0.176471 0.537255
0.007843 0.184314 0.537255
0.007843 0.192157 0.537255
0.007843 0.200000 0.537255
0.007843 0.207843 0.537255
0.007843 0.211765 0.537255
0.007843 0.219608 0.537255
0.007843 0.227451 0.537255
0.007843 0.235294 0.537255
0.007843 0.243137 0.537255
0.007843 0.250980 0.537255
0.007843 0.258824 0.537255
0.007843 0.262745 0.537255
0.007843 0.270588 0.537255
0.007843 0.278431 0.537255
0.007843 0.286275 0.537255
0.007843 0.294118 0.537255
0.007843 0.301961 0.537255
0.007843 0.309804 0.537255
0.007843 0.317647 0.537255
0.007843 0.325490 0.537255
0.007843 0.329412 0.537255
0.007843 0.337255 0.537255
0.007843 0.345098 0.537255
0.007843 0.352941 0.537255
0.007843 0.360784 0.537255
0.007843 0.368627 0.537255
0.007843 0.372549 0.537255
0.007843 0.380392 0.537255
0.007843 0.388235 0.533333
0.007843 0.396078 0.533333
0.007843 0.403922 0.533333
0.007843 0.411765 0.533333
0.007843 0.419608 0.533333
0.007843 0.427451 0.533333
0.007843 0.435294 0.533333
0.007843 0.443137 0.533333
0.007843 0.447059 0.533333
0.007843 0.454902 0.533333
0.007843 0.462745 0.533333
0.007843 0.470588 0.533333
0.007843 0.478431 0.533333
0.007843 0.486275 0.533333
0.007843 0.490196 0.533333
0.007843 0.498039 0.533333
0.007843 0.505882 0.533333
0.007843 0.513725 0.533333
0.023529 0.521569 0.525490
0.039216 0.529412 0.517647
0.054902 0.537255 0.513725
0.066667 0.541176 0.505882
0.082353 0.549020 0.498039
0.094118 0.556863 0.494118
0.109804 0.560784 0.486275
0.121569 0.568627 0.478431
0.137255 0.576471 0.474510
0.149020 0.584314 0.466667
0.164706 0.588235 0.458824
0.180392 0.596078 0.454902
0.192157 0.603922 0.447059
0.207843 0.607843 0.439216
0.219608 0.615686 0.435294
0.235294 0.623529 0.427451
0.007843 0.184314 0.537255
0.007843 0.192157 0.537255
0.007843 0.200000 0.537255
0.007843 0.207843 0.537255
0.007843 0.211765 0.537255
0.007843 0.219608 0.537255
0.007843 0.227451 0.537255
0.007843 0.235294 0.537255
0.007843 0.243137 0.537255
0.007843 0.250980 0.537255
0.007843 0.254902 0.537255
0.007843 0.262745 0.537255
0.007843 0.270588 0.537255
0.007843 0.278431 0.537255
0.007843 0.286275 0.537255
0.007843 0.294118 0.537255
0.007843 0.301961 0.537255
0.007843 0.309804 0.537255
0.007843 0.317647 0.537255
0.007843 0.325490 0.537255
0.007843 0.329412 0.537255
0.007843 0.337255 0.537255
0.007843 0.345098 0.537255
0.007843 0.352941 0.537255
0.007843 0.360784 0.537255
0.007843 0.368627 0.537255
0.007843 0.372549 0.537255
0.007843 0.380392 0.537255
0.007843 0.388235 0.533333
0.007843 0.396078 0.533333
0.007843 0.403922 0.533333
0.007843 0.411765 0.533333
0.007843 0.419608 0.533333
0.007843 0.427451 0.533333
0.007843 0.435294 0.533333
0.007843 0.439216 0.533333
0.007843 0.447059 0.533333
0.007843 0.454902 0.533333
0.007843 0.462745 0.533333
0.007843 0.470588 0.533333
0.007843 0.478431 0.533333
0.007843 0.486275 0.533333
0.007843 0.490196 0.533333
0.007843 0.498039 0.533333
0.007843 0.505882 0.533333
0.007843 0.513725 0.533333
0.019608 0.521569 0.525490
0.035294 0.525490 0.521569
0.050980 0.533333 0.513725
0.066667 0.541176 0.505882
0.082353 0.549020 0.498039
0.094118 0.556863 0.494118
0.109804 0.560784 0.486275
0.121569 0.568627 0.478431
0.137255 0.576471 0.474510
