thermal.cube
# Generated by colorizer.net
LUT_3D_SIZE 8
0.007843 0.000000 0.541176
0.007843 0.066667 0.541176
0.007843 0.133333 0.537255
0.007843 0.196078 0.537255
0.007843 0.262745 0.537255
0.007843 0.329412 0.537255
0.007843 0.396078 0.533333
0.007843 0.462745 0.533333
0.007843 0.129412 0.541176
0.007843 0.192157 0.537255
0.007843 0.258824 0.537255
0.007843 0.325490 0.537255
0.007843 0.392157 0.533333
0.007843 0.454902 0.533333
0.027451 0.521569 0.525490
0.152941 0.584314 0.466667
0.007843 0.258824 0.537255
0.007843 0.325490 0.537255
0.007843 0.392157 0.533333
0.007843 0.454902 0.533333
0.023529 0.521569 0.525490
0.152941 0.584314 0.466667
0.278431 0.643137 0.407843
0.403922 0.705882 0.349020
0.007843 0.388235 0.533333
0.007843 0.450980 0.533333
0.015686 0.517647 0.529412
0.141176 0.580392 0.470588
0.270588 0.639216 0.411765
0.396078 0.701961 0.352941
0.525490 0.764706 0.290196
0.650980 0.823529 0.231373
0.015686 0.517647 0.529412
0.141176 0.576471 0.470588
0.270588 0.639216 0.411765
0.396078 0.701961 0.352941
0.525490 0.764706 0.290196
0.650980 0.823529 0.231373
0.780392 0.886275 0.172549
0.905882 0.945098 0.113725
0.262745 0.635294 0.415686
0.388235 0.698039 0.356863
0.517647 0.760784 0.294118
0.643137 0.819608 0.235294
0.772549 0.882353 0.176471
0.898039 0.941176 0.117647
1.000000 0.964706 0.070588
1.000000 0.839216 0.070588
0.517647 0.760784 0.298039
0.643137 0.819608 0.239216
0.772549 0.882353 0.176471
0.898039 0.941176 0.117647
1.000000 0.964706 0.070588
1.000000 0.839216 0.070588
1.000000 0.709804 0.066667
1.000000 0.584314 0.066667
0.764706 0.878431 0.180392
0.890196 0.937255 0.121569
1.000000 0.972549 0.070588
1.000000 0.847059 0.070588
1.000000 0.721569 0.066667
1.000000 0.592157 0.066667
1.000000 0.466667 0.066667
1.000000 0.341176 0.066667
0.007843 0.023529 0.541176
0.007843 0.090196 0.541176
0.007843 0.156863 0.537255
0.007843 0.223529 0.537255
0.007843 0.290196 0.537255
0.007843 0.352941 0.537255
0.007843 0.419608 0.533333
0.007843 0.486275 0.533333
0.007843 0.152941 0.537255
0.007843 0.215686 0.537255
0.007843 0.286275 0.537255
0.007843 0.349020 0.537255
0.007843 0.415686 0.533333
0.007843 0.482353 0.533333
0.074510 0.545098 0.501961
0.200000 0.607843 0.443137
0.007843 0.282353 0.537255
0.007843 0.349020 0.537255
0.007843 0.415686 0.533333
0.007843 0.482353 0.533333
0.074510 0.545098 0.501961
0.200000 0.607843 0.443137
0.329412 0.666667 0.384314
0.454902 0.729412 0.325490
0.007843 0.411765 0.533333
0.007843 0.478431 0.533333
0.066667 0.541176 0.505882
0.192157 0.603922 0.447059
0.321569 0.662745 0.388235
0.447059 0.725490 0.329412
0.576471 0.788235 0.270588
0.701961 0.847059 0.211765
0.062745 0.541176 0.505882
0.188235 0.600000 0.447059
0.317647 0.662745 0.388235
0.443137 0.725490 0.329412
0.572549 0.788235 0.270588
0.698039 0.847059 0.211765
0.827451 0.909804 0.149020
0.952941 0.968627 0.090196
0.309804 0.658824 0.392157
0.435294 0.721569 0.333333
0.564706 0.784314 0.274510
0.690196 0.843137 0.215686
0.819608 0.905882 0.152941
0.945098 0.964706 0.094118
1.000000 0.917647 0.070588
1.000000 0.792157 0.070588
0.564706 0.780392 0.274510
0.690196 0.843137 0.215686
0.819608 0.905882 0.156863
0.945098 0.964706 0.098039
1.000000 0.917647 0.070588
1.000000 0.792157 0.070588
1.000000 0.662745 0.066667
1.000000 0.537255 0.066667
0.811765 0.901961 0.160784
0.937255 0.960784 0.101961
1.000000 0.925490 0.070588
1.000000 0.800000 0.070588
1.000000 0.670588 0.066667
1.000000 0.545098 0.066667
1.000000 0.415686 0.066667
1.000000 0.290196 0.066667
0.007843 0.050980 0.541176
0.007843 0.113725 0.541176
0.007843 0.180392 0.537255
0.007843 0.247059 0.537255
0.007843 0.313725 0.537255
0.007843 0.380392 0.537255
0.007843 0.447059 0.533333
0.007843 0.509804 0.533333
0.007843 0.176471 0.537255
0.007843 0.243137 0.537255
0.007843 0.309804 0.537255
0.007843 0.376471 0.537255
0.007843 0.443137 0.533333
0.007843 0.505882 0.533333
0.125490 0.568627 0.478431
0.250980 0.631373 0.419608
0.007843 0.309804 0.537255
0.007843 0.372549 0.537255
0.007843 0.443137 0.533333
0.007843 0.505882 0.533333
0.121569 0.568627 0.478431
0.247059 0.631373 0.419608
0.376471 0.690196 0.360784
0.501961 0.752941 0.301961
0.007843 0.435294 0.533333
0.007843 0.501961 0.533333
0.113725 0.564706 0.482353
0.239216 0.627451 0.423529
0.368627 0.686275 0.364706
0.494118 0.749020 0.305882
0.623529 0.811765 0.247059
0.749020 0.870588 0.188235
0.113725 0.564706 0.482353
0.239216 0.623529 0.427451
0.368627 0.686275 0.364706
0.494118 0.749020 0.305882
0.623529 0.811765 0.247059
0.749020 0.870588 0.188235
0.878431 0.933333 0.129412
1.000000 0.988235 0.070588
0.360784 0.682353 0.368627
0.486275 0.745098 0.309804
0.615686 0.807843 0.250980
0.741176 0.866667 0.192157
0.870588 0.929412 0.133333
0.996078 0.988235 0.074510
1.000000 0.866667 0.070588
1.000000 0.741176 0.066667
0.611765 0.803922 0.250980
0.737255 0.866667 0.192157
0.866667 0.929412 0.133333
0.992157 0.988235 0.074510
1.000000 0.870588 0.070588
1.000000 0.745098 0.066667
1.000000 0.615686 0.066667
1.000000 0.490196 0.066667
0.858824 0.925490 0.137255
0.984314 0.984314 0.078431
1.000000 0.878431 0.070588
1.000000 0.752941 0.070588
1.000000 0.623529 0.066667
1.000000 0.498039 0.066667
1.000000 0.368627 0.066667
1.000000 0.243137 0.062745
0.007843 0.074510 0.541176
0.007843 0.141176 0.537255
0.007843 0.207843 0.537255
0.007843 0.270588 0.537255
0.007843 0.337255 0.537255
0.007843 0.403922 0.533333
0.007843 0.470588 0.533333
0.050980 0.533333 0.513725
0.007843 0.203922 0.537255
0.007843 0.266667 0.537255
0.007843 0.333333 0.537255
0.007843 0.400000 0.533333
0.007843 0.466667 0.533333
0.043137 0.529412 0.517647
0.172549 0.592157 0.458824
0.298039 0.654902 0.400000
0.007843 0.333333 0.537255
0.007843 0.400000 0.533333
0.007843 0.466667 0.533333
0.043137 0.529412 0.517647
0.168627 0.592157 0.458824
0.298039 0.650980 0.400000
0.423529 0.713725 0.337255
0.549020 0.776471 0.278431
0.007843 0.462745 0.533333
0.031373 0.525490 0.521569
0.160784 0.588235 0.462745
0.286275 0.647059 0.403922
0.415686 0.709804 0.341176
0.541176 0.772549 0.282353
0.670588 0.835294 0.223529
0.796078 0.894118 0.164706
0.160784 0.588235 0.462745
0.286275 0.647059 0.403922
0.415686 0.709804 0.341176
0.541176 0.772549 0.286275
0.670588 0.831373 0.223529
0.796078 0.894118 0.164706
0.925490 0.956863 0.105882
1.000000 0.941176 0.070588
0.407843 0.705882 0.345098
0.533333 0.768627 0.286275
0.662745 0.831373 0.227451
0.788235 0.890196 0.168627
0.917647 0.952941 0.109804
1.000000 0.949020 0.070588
1.000000 0.819608 0.070588
1.000000 0.694118 0.066667
0.662745 0.827451 0.227451
0.788235 0.890196 0.168627
0.917647 0.952941 0.109804
1.000000 0.949020 0.070588
1.000000 0.819608 0.070588
1.000000 0.694118 0.066667
1.000000 0.564706 0.066667
1.000000 0.439216 0.066667
0.909804 0.949020 0.113725
1.000000 0.956863 0.070588
1.000000 0.831373 0.070588
1.000000 0.701961 0.066667
1.000000 0.576471 0.066667
1.000000 0.450980 0.066667
1.000000 0.321569 0.066667
1.000000 0.196078 0.062745
0.007843 0.101961 0.541176
0.007843 0.164706 0.537255
0.007843 0.231373 0.537255
0.007843 0.298039 0.537255
0.007843 0.364706 0.537255
0.007843 0.431373 0.533333
0.007843 0.498039 0.533333
0.098039 0.556863 0.490196
0.007843 0.227451 0.537255
0.007843 0.294118 0.537255
0.007843 0.360784 0.537255
0.007843 0.423529 0.533333
0.007843 0.490196 0.533333
0.090196 0.552941 0.494118
0.219608 0.615686 0.435294
0.345098 0.678431 0.376471
0.007843 0.360784 0.537255
0.007843 0.423529 0.533333
0.007843 0.490196 0.533333
0.090196 0.552941 0.494118
0.219608 0.615686 0.435294
0.345098 0.674510 0.376471
0.474510 0.737255 0.317647
0.600000 0.800000 0.258824
0.007843 0.486275 0.533333
0.082353 0.549020 0.498039
0.211765 0.611765 0.439216
0.337255 0.674510 0.380392
0.466667 0.733333 0.317647
0.592157 0.796078 0.262745
0.721569 0.858824 0.200000
0.847059 0.917647 0.141176
0.211765 0.611765 0.439216
0.337255 0.670588 0.380392
0.466667 0.733333 0.321569
0.592157 0.796078 0.262745
0.721569 0.858824 0.200000
0.847059 0.917647 0.141176
0.976471 0.980392 0.082353
1.000000 0.890196 0.070588
0.458824 0.729412 0.325490
0.584314 0.792157 0.266667
0.709804 0.854902 0.203922
0.839216 0.913725 0.145098
0.964706 0.976471 0.086275
1.000000 0.898039 0.070588
1.000000 0.772549 0.070588
1.000000 0.647059 0.066667
0.709804 0.850980 0.203922
0.835294 0.913725 0.145098
0.964706 0.976471 0.086275
1.000000 0.901961 0.070588
1.000000 0.772549 0.070588
1.000000 0.647059 0.066667
1.000000 0.517647 0.066667
1.000000 0.392157 0.066667
0.956863 0.972549 0.090196
1.000000 0.909804 0.070588
1.000000 0.780392 0.070588
1.000000 0.654902 0.066667
1.000000 0.525490 0.066667
1.000000 0.400000 0.066667
1.000000 0.270588 0.066667
1.000000 0.145098 0.062745
0.007843 0.125490 0.541176
0.007843 0.192157 0.537255
0.007843 0.258824 0.537255
0.007843 0.321569 0.537255
0.007843 0.388235 0.533333
0.007843 0.454902 0.533333
0.023529 0.521569 0.525490
0.149020 0.580392 0.466667
0.007843 0.254902 0.537255
0.007843 0.317647 0.537255
0.007843 0.384314 0.537255
0.007843 0.450980 0.533333
0.015686 0.517647 0.529412
0.141176 0.576471 0.470588
0.270588 0.639216 0.411765
0.396078 0.701961 0.352941
0.007843 0.384314 0.537255
0.007843 0.450980 0.533333
0.011765 0.517647 0.529412
0.137255 0.576471 0.470588
0.266667 0.639216 0.411765
0.392157 0.698039 0.352941
0.521569 0.760784 0.294118
0.647059 0.823529 0.235294
0.007843 0.513725 0.533333
0.129412 0.572549 0.474510
0.258824 0.635294 0.415686
0.384314 0.694118 0.356863
0.513725 0.756863 0.298039
0.639216 0.819608 0.239216
0.768627 0.882353 0.176471
0.894118 0.941176 0.121569
0.258824 0.635294 0.415686
0.384314 0.694118 0.356863
0.513725 0.756863 0.298039
0.639216 0.819608 0.239216
0.768627 0.878431 0.180392
0.894118 0.941176 0.121569
1.000000 0.968627 0.070588
1.000000 0.843137 0.070588
0.505882 0.752941 0.301961
0.631373 0.815686 0.243137
0.760784 0.874510 0.184314
0.886275 0.937255 0.125490
1.000000 0.976471 0.070588
1.000000 0.850980 0.070588
1.000000 0.721569 0.066667
1.000000 0.596078 0.066667
0.756863 0.874510 0.184314
0.882353 0.937255 0.125490
1.000000 0.980392 0.070588
1.000000 0.854902 0.070588
1.000000 0.725490 0.066667
1.000000 0.600000 0.066667
1.000000 0.470588 0.066667
1.000000 0.345098 0.066667
1.000000 0.988235 0.070588
1.000000 0.862745 0.070588
1.000000 0.733333 0.066667
1.000000 0.607843 0.066667
1.000000 0.478431 0.066667
1.000000 0.352941 0.066667
1.000000 0.223529 0.062745
1.000000 0.098039 0.062745
0.007843 0.149020 0.537255
0.007843 0.215686 0.537255
0.007843 0.282353 0.537255
0.007843 0.349020 0.537255
0.007843 0.415686 0.533333
0.007843 0.478431 0.533333
0.070588 0.545098 0.501961
0.196078 0.603922 0.443137
0.007843 0.278431 0.537255
0.007843 0.345098 0.537255
0.007843 0.411765 0.533333
0.007843 0.474510 0.533333
0.062745 0.541176 0.505882
0.188235 0.600000 0.447059
0.317647 0.662745 0.388235
0.443137 0.725490 0.329412
0.007843 0.411765 0.533333
0.007843 0.474510 0.533333
0.062745 0.541176 0.509804
0.188235 0.600000 0.450980
0.317647 0.662745 0.388235
0.443137 0.721569 0.329412
0.572549 0.784314 0.270588
0.698039 0.847059 0.211765
0.054902 0.537255 0.513725
0.180392 0.596078 0.454902
0.309804 0.658824 0.392157
0.435294 0.717647 0.333333
0.564706 0.780392 0.274510
0.690196 0.843137 0.215686
0.819608 0.905882 0.156863
0.945098 0.964706 0.098039
0.305882 0.658824 0.392157
0.431373 0.717647 0.333333
0.560784 0.780392 0.274510
0.686275 0.843137 0.215686
0.815686 0.901961 0.156863
0.941176 0.964706 0.098039
1.000000 0.921569 0.070588
1.000000 0.796078 0.070588
0.552941 0.776471 0.278431
0.678431 0.839216 0.219608
0.807843 0.898039 0.160784
0.933333 0.960784 0.101961
1.000000 0.929412 0.070588
1.000000 0.803922 0.070588
1.000000 0.674510 0.066667
1.000000 0.549020 0.066667
0.807843 0.898039 0.160784
0.933333 0.960784 0.101961
1.000000 0.929412 0.070588
1.000000 0.803922 0.070588
1.000000 0.674510 0.066667
1.000000 0.549020 0.066667
1.000000 0.419608 0.066667
1.000000 0.294118 0.066667
1.000000 0.937255 0.070588
1.000000 0.811765 0.070588
1.000000 0.682353 0.066667
1.000000 0.556863 0.066667
1.000000 0.427451 0.066667
1.000000 0.301961 0.066667
1.000000 0.172549 0.062745
1.000000 0.047059 0.062745
0.007843 0.176471 0.537255
0.007843 0.239216 0.537255
0.007843 0.305882 0.537255
0.007843 0.372549 0.537255
0.007843 0.439216 0.533333
0.007843 0.505882 0.533333
0.117647 0.568627 0.482353
0.243137 0.627451 0.423529
0.007843 0.301961 0.537255
0.007843 0.368627 0.537255
0.007843 0.435294 0.533333
0.007843 0.501961 0.533333
0.109804 0.564706 0.486275
0.235294 0.623529 0.427451
0.364706 0.686275 0.364706
0.490196 0.745098 0.305882
0.007843 0.435294 0.533333
0.007843 0.498039 0.533333
0.109804 0.564706 0.486275
0.235294 0.623529 0.427451
0.364706 0.686275 0.368627
0.490196 0.745098 0.309804
0.619608 0.807843 0.247059
0.745098 0.870588 0.188235
0.101961 0.560784 0.490196
0.227451 0.619608 0.431373
0.356863 0.682353 0.372549
0.482353 0.741176 0.313725
0.611765 0.803922 0.250980
0.737255 0.866667 0.192157
0.866667 0.929412 0.133333
0.992157 0.988235 0.074510
0.356863 0.682353 0.372549
0.482353 0.741176 0.313725
0.611765 0.803922 0.250980
0.737255 0.866667 0.192157
0.866667 0.925490 0.133333
0.992157 0.988235 0.074510
1.000000 0.870588 0.070588
1.000000 0.745098 0.070588
0.603922 0.800000 0.254902
0.729412 0.862745 0.196078
0.854902 0.921569 0.137255
0.984314 0.984314 0.078431
1.000000 0.882353 0.070588
1.000000 0.756863 0.070588
1.000000 0.627451 0.066667
1.000000 0.501961 0.066667
0.854902 0.921569 0.137255
0.980392 0.984314 0.078431
1.000000 0.882353 0.070588
1.000000 0.756863 0.070588
1.000000 0.627451 0.066667
1.000000 0.501961 0.066667
1.000000 0.372549 0.066667
1.000000 0.247059 0.062745
1.000000 0.890196 0.070588
1.000000 0.764706 0.070588
1.000000 0.635294 0.066667
1.000000 0.509804 0.066667
1.000000 0.380392 0.066667
1.000000 0.254902 0.066667
1.000000 0.125490 0.062745
1.000000 0.000000 0.062745
